!!!!SEGMENT: pl-kk--kk-i-32--001_anonim--missa-sabbativa-kyrie.krn
!!!cenid: 17xx:2236
!!!COM: Anonim
!!!COM-rismid: pe30004985
!!!CDT:
!!!CNT:
!!!OPR: Missa Sabbativa
!!!OTL: Kyrie
!!!OMV: 001
!!!PDT:
!!!AGN: Sacred; Mass
!!!SMS-siglum: PL-Kk
!!!SMS-shelfmark: Kk.I.32
!!!SMS-shelfwork: 001-001 M
!!!SMS-variant:
!!!SMS-altvar:
!!!NIFC-rismid: 1001156562
!!!URL-scan: http://repozytorium.nifc.pl/skany/pl-kk-nut--i-32
!!!ONB-nifc: UWAGA: części Mszy: 1. Kyrie, 2. Et in terra, 3. Sanctus, 4. Agnus Dei.
**kern	**text	**kern	**text	**kern	**text	**kern	**text
*part4	*part4	*part3	*part3	*part2	*part2	*part1	*part1
*staff4	*staff4	*staff3	*staff3	*staff2	*staff2	*staff1	*staff1
*Iempty	*	*Itenor	*	*Itenor	*	*Ialto	*
*I"Baſso.	*	*I"Tenore in Chorali.	*	*I"Tenore 1mo.	*	*I"Alto	*
*I'B	*	*I'T2	*	*I'T1	*	*I'A	*
*clefF4	*	*clefC4	*	*clefC4	*	*clefC3	*
*k[]	*	*k[]	*	*k[]	*	*k[]	*
*F:	*	*F:	*	*F:	*	*F:	*
*M2/1	*	*M2/1	*	*M2/1	*	*M2/1	*
*met(C|)	*	*met(C|)	*	*met(C|)	*	*met(C|)	*
=1-	=1-	=1-	=1-	=1-	=1-	=1-	=1-
*2\right	*	*2\right	*	*2\right	*	*2\right	*
!	!	!LO:TX:a:i:t=Sabbativa	!	!LO:TX:a:i:t=Sabbativa.	!	!LO:TX:a:i:t=Sabbativa	!
!LO:TX:a:i:t=Miſsa Sabbativa	!	!LO:TX:t=P:problem:kreska pseudotaktowa	!	!LO:TX:t=P:problem:bemol przy dźwięku b jest przy kluczu	!	!LO:TX:t=P:problem:kreska pseudotaktowa	!
1D	Ky-	1D	Ky-	1A	Ky-	1d	Ky-
!LO:TX:t=P:problem:kreska pseudotaktowa	!	!	!	!	!	!	!
1BB-X	-rie	0F	-rie	1B-X	-rie	2d\	-rie
.	.	.	.	.	.	1d\	.
=2-	=2-	=2-	=2-	=2-	=2-	=2-	=2-
2BB-/	.	.	.	2B-\	.	.	.
!LO:TX:t=P:problem:kreska pseudotaktowa	!	!	!	!LO:TX:t=P:problem:kreska pseudotaktowa	!	!LO:TX:t=P:problem:kreska pseudotaktowa	!
2D/	.	.	.	2A\	.	2f\	e-
*	*	*lig	*	*	*	*	*
2C/	.	1G	.	2c\	.	2e\	-lei-
!LO:TX:t=P:problem:kreska pseudotaktowa	!	!	!	!	!	!	!
2BB-X/	e-	.	.	2G/	e-	2d\	.
=3-	=3-	=3-	=3-	=3-	=3-	=3-	=3-
!	!	!LO:TX:t=P:problem:kreska pseudotaktowa	!	!	!	!	!
2AA/	.	1A	.	2c\	-lei-	2c,</	-son
!LO:TX:t=P:problem:kreska pseudotaktowa	!	!	!	!LO:TX:t=P:problem:kreska pseudotaktowa	!	!	!
2F\	.	.	.	2A/	.	1f	Ky-
*	*	*Xlig	*	*	*	*	*
*	*	*lig	*	*	*	*	*
2G\	-lei-	1G	e-	2B-X,<\	-son	.	.
*	*	*	*	*	*ij	*	*
!LO:TX:t=P:problem:kreska pseudotaktowa	!	!	!	!	!	!LO:TX:t=P:problem:kreska pseudotaktowa	!
2GG/	.	.	.	1G/	Ky-	2[<e\	.
=4-	=4-	=4-	=4-	=4-	=4-	=4-	=4-
!	!	!LO:TX:t=P:problem:kreska pseudotaktowa	!	!	!	!	!
1C	-son	1E	.	.	.	2e\]	.
!	!	!	!	!LO:TX:t=P:problem:kreska pseudotaktowa	!	!	!
.	.	.	.	2G/	-rie	1c	-rie
*	*	*Xlig	*	*	*	*	*
*	*	*lig	*	*	*	*	*
2FF,</	.	1F	-lei-	1A	.	.	.
!LO:TX:t=P:problem:kreska pseudotaktowa	!	!	!	!	!	!	!
2F\	Ky-	.	.	.	.	1d\	.
=5-	=5-	=5-	=5-	=5-	=5-	=5-	=5-
!	!	!	!	!LO:TX:t=P:problem:kreska pseudotaktowa	!	!	!
1G	-rie	1E	.	1G	.	.	.
!	!	!	!	!	!	!LO:TX:t=P:problem:kreska pseudotaktowa	!
.	.	.	.	.	.	2c/	.
*	*	*Xlig	*	*	*	*	*
!LO:TX:t=P:problem:kreska pseudotaktowa	!	!LO:TX:t=P:problem:kreska pseudotaktowa	!	!	!	!	!
1F	.	1D	-son	2B-X\	e-	1d	e-
.	.	.	.	1A\	-lei-	.	.
=6-	=6-	=6-	=6-	=6-	=6-	=6-	=6-
*	*	*lig	*	*	*	*	*
2F\	.	1F	Ky-	.	.	2d\	-lei-
!LO:TX:t=P:problem:kreska pseudotaktowa	!	!	!	!LO:TX:t=P:problem:kreska pseudotaktowa	!	!	!
2FF/	.	.	.	2A/	.	1c	.
*	*	*	*	*lig	*	*	*
1GG	e-	1D	.	1G	.	.	.
!	!	!	!	!	!	!LO:TX:t=P:problem:kreska pseudotaktowa	!
.	.	.	.	.	.	2B/	.
*	*	*Xlig	*	*	*	*	*
=7-	=7-	=7-	=7-	=7-	=7-	=7-	=7-
!	!	!LO:TX:t=P:problem:kreska pseudotaktowa	!	!	!	!	!
1AA	.	1C	-rie	1E	-son	1c	.
*	*	*lig	*	*Xlig	*Xij	*	*
1BB-X	.	1D	.	2D,</	.	2F/	.
!	!	!	!	!	!	!LO:TX:t=P:problem:kreska pseudotaktowa	!
.	.	.	.	2B-\	Ky-	2G/	.
!	!	!	!	!	!	!LO:LB:g=original	!
=8-	=8-	=8-	=8-	=8-	=8-	=8-	=8-
!	!	!LO:TX:t=P:problem:kreska pseudotaktowa	!	!	!	!	!
2F\	.	1C	.	2A\	-ri-	2A/	.
!LO:TX:t=P:problem:kreska pseudotaktowa	!	!	!	!LO:TX:t=P:problem:kreska pseudotaktowa	!	!	!
2A\	.	.	.	2F/	-e-	1c	.
*	*	*Xlig	*	*	*	*	*
!LO:LB:g=original	!	!	!	!LO:LB:g=original	!	!	!
1G	-lei-	1D	e-	1G	-e	.	.
!	!	!	!	!	!	!LO:TX:t=P:problem:kreska pseudotaktowa	!
.	.	.	.	.	.	2B/	-son
=9-	=9-	=9-	=9-	=9-	=9-	=9-	=9-
!LO:TX:t=P:problem:kreska pseudotaktowa	!	!	!	!	!	!	!
*	*	*lig	*	*	*	*	*ij
1F	-son	1F	.	2C/	.	2c/	e-
.	.	.	.	1c	Ky-	2A/	-lei-
!	!	!	!	!	!	!LO:TX:t=P:problem:kreska pseudotaktowa	!
1C	Ky-	1E	.	.	.	1G	-son
*	*	*	*	*	*	*	*Xij
!	!	!	!	!LO:TX:t=P:problem:kreska pseudotaktowa	!	!	!
.	.	.	.	2c\	-ri-	.	.
*	*	*Xlig	*	*	*	*	*
=10-	=10-	=10-	=10-	=10-	=10-	=10-	=10-
*lig	*	*	*	*	*	*	*
1D	-rie	1F	.	1A	-e	2E,</	.
.	.	.	.	.	.	1f	Ky-
!LO:TX:t=P:problem:kreska pseudotaktowa	!	!	!	!	!	!	!
*	*	*lig	*	*	*	*	*
1GG	.	1G	.	1B-X	.	.	.
.	.	.	.	.	.	2d\	-rie
!	!	!	!	!	!	!LO:TX:t=P:problem:kreska pseudotaktowa	!
*Xlig	*	*	*	*	*	*	*
=11-	=11-	=11-	=11-	=11-	=11-	=11-	=11-
*lig	*	*	*	*	*	*	*
1C	.	1E	.	1G	e-	1e	e-
*	*	*Xlig	*	*	*	*	*
*	*	*lig	*	*	*	*	*
1D	e-	1F	-lei-	2F/	.	2A/	-lei-
!	!	!	!	!LO:TX:t=P:problem:kreska pseudotaktowa	!	!	!
.	.	.	.	2D/	.	1d\	.
*Xlig	*	*	*	*	*	*	*
=12-	=12-	=12-	=12-	=12-	=12-	=12-	=12-
1AA	-lei-	1E	-son	1A	-lei-	.	.
.	.	.	.	.	.	2c\	.
*	*	*Xlig	*	*	*	*	*
!LO:TX:t=P:problem:podwójna kreska pseudotaktowa	!	!	!	!LO:TX:t=P:problem:podwójna kreska pseudotaktowa	!	!LO:TX:t=P:problem:podwójna kreska pseudotaktowa	!
0D;>	-son.	0D;>	.	0A;>	-son	0d;>	-son
=13-	=13-	=13-	=13-	=13-	=13-	=13-	=13-
.	.	.	.	.	.	.	.
!	!	!LO:LB:g=original	!	!	!	!	!
=14||-	=14||-	=14||-	=14||-	=14||-	=14||-	=14||-	=14||-
*M2/1	*	*M2/1	*	*M2/1	*	*M2/1	*
*met(C|)	*	*met(C|)	*	*met(C|)	*	*met(C|)	*
!	!	!LO:TX:t=P:problem:podwójna kreska pseudotaktowa	!	!	!	!LO:TX:t=P:problem:kreska pseudotaktowa	!
1AA	Chri-	1A	Chri-	1c	Chri-	1e	Chri-
!LO:TX:t=P:problem:kreska pseudotaktowa	!	!	!	!	!	!	!
*	*	*lig	*	*	*	*	*
!	!	!	!	!LO:TX:t=P:problem:kreska pseudotaktowa	!	!	!
1D	-ste	1A	-ste	1d	-ste	1f	-ste
=15-	=15-	=15-	=15-	=15-	=15-	=15-	=15-
2GG/	.	1G	.	2B-\	.	2d\	.
1C	e-	.	.	1c	e-	1e	e-
*	*	*Xlig	*	*	*	*	*
*	*	*lig	*	*	*	*	*
.	.	1A	.	.	.	.	.
!LO:TX:t=P:problem:kreska pseudotaktowa	!	!	!	!LO:TX:t=P:problem:kreska pseudotaktowa	!	!	!
2C/	-lei-	.	.	2c\	.	1g\	.
=16-	=16-	=16-	=16-	=16-	=16-	=16-	=16-
!	!	!LO:TX:t=P:problem:kreska pseudotaktowa	!	!	!	!	!
!	!	!LO:TX:t=P:problem:♭ above	!	!	!	!	!
2GG,</	-son	1B-X	e-	2d\	.	.	.
!	!	!	!	!	!	!LO:TX:t=P:problem:kreska pseudotaktowa	!
1G	Chri-	.	.	2G/	.	2d\	.
*	*	*Xlig	*	*	*	*	*
*	*	*lig	*	*lig	*	*	*
.	.	1A	.	1c	.	2e\	.
!LO:TX:t=P:problem:kreska pseudotaktowa	!	!	!	!	!	!LO:TX:t=P:problem:kreska pseudotaktowa	!
2F\	.	.	.	.	.	2f\	.
!	!	!	!	!	!	!LO:LB:g=original	!
=17-	=17-	=17-	=17-	=17-	=17-	=17-	=17-
!	!	!	!	!LO:SIC:v:t=custos A	!	!	!
!	!	!	!	!LO:TX:t=P:problem:kreska pseudotaktowa	!	!	!
1G	-ste	1G	.	1B-	.	2d\	.
.	.	.	.	.	.	1g	-lei-
*	*	*Xlig	*	*Xlig	*	*	*
*	*	*lig	*	*	*	*	*
!	!	!	!	!LO:LB:g=original	!	!	!
2D\	.	1A	.	2A/	.	.	.
!LO:TX:t=P:problem:kreska pseudotaktowa	!	!	!	!	!	!	!
2F\	e-	.	.	2F/	.	1f\	.
!LO:LB:g=original	!	!	!	!	!	!	!
=18-	=18-	=18-	=18-	=18-	=18-	=18-	=18-
!	!	!	!	!LO:TX:t=P:problem:kreska pseudotaktowa	!	!	!
1C	.	1G	.	1c	-lei-	.	.
!	!	!	!	!	!	!LO:TX:t=P:problem:kreska pseudotaktowa	!
.	.	.	.	.	.	2e\	.
*	*	*Xlig	*	*	*	*	*
!LO:TX:t=P:problem:kreska pseudotaktowa	!	!	!	!	!	!	!
!	!	!LO:TX:t=P:problem:kreska pseudotaktowa	!	!	!	!	!
1D	.	0F	.	2A,>/	-son	1f	.
*	*	*	*	*	*ij	*	*
.	.	.	.	1D/	e-	.	.
=19-	=19-	=19-	=19-	=19-	=19-	=19-	=19-
2BB-X/	-lei-	.	.	.	.	2d\	.
!	!	!	!	!	!	!LO:TX:t=P:problem:kreska pseudotaktowa	!
2AA/	.	.	.	1F	.	2c\	.
!LO:TX:t=P:problem:kreska pseudotaktowa	!	!	!	!	!	!	!
*	*	*lig	*	*	*	*	*
!	!	!	!	!	!	!LO:TX:t=P:problem:♭ above	!
1GG	-son	1G	.	.	.	1B-X	.
!	!	!	!	!LO:TX:t=P:problem:kreska pseudotaktowa	!	!	!
.	.	.	.	2E/	.	.	.
=20-	=20-	=20-	=20-	=20-	=20-	=20-	=20-
*	*	*	*	*lig	*	*	*
2FF,</	.	1A	.	1F	.	1A	.
1F	X-	.	.	.	.	.	.
*	*	*Xlig	*	*	*	*	*
*	*	*lig	*	*	*	*	*
!	!	!	!	!	!	!LO:TX:t=P:problem:kreska pseudotaktowa	!
.	.	1B-X	.	1G	.	1G	.
!LO:TX:t=P:problem:kreska pseudotaktowa	!	!	!	!	!	!	!
2E\	-te	.	.	.	.	.	.
*	*	*	*	*Xlig	*	*	*
=21-	=21-	=21-	=21-	=21-	=21-	=21-	=21-
1F	e-	1A	.	2A/	-lei-	2F/	.
.	.	.	.	2F/	-son	1f	.
*	*	*Xlig	*	*	*Xij	*	*
1C	-lei-	1G	-lei-	1c	.	.	.
!	!	!	!	!	!	!LO:TX:t=P:problem:kreska pseudotaktowa	!
.	.	.	.	.	.	2e\	-son.
=22-	=22-	=22-	=22-	=22-	=22-	=22-	=22-
!LO:TX:t=P:problem:podwójna kreska pseudotaktowa	!	!LO:TX:t=P:problem:podwójna kreska pseudotaktowa	!	!LO:TX:t=P:problem:podwójna kreska pseudotaktowa	!	!LO:TX:t=P:problem:podwójna kreska pseudotaktowa	!
0FF;>	-son.	0A;>	-son.	0c;>	.	0f;	.
!	!	!LO:LB:g=original	!	!	!	!	!
=23||-	=23||-	=23||-	=23||-	=23||-	=23||-	=23||-	=23||-
*M2/1	*	*M2/1	*	*M2/1	*	*M2/1	*
*met(C|)	*	*met(C|)	*	*met(C|)	*	*met(C|)	*
*	*	*lig	*	*	*	*	*
1F	Ky-	1A	Ky-	0c	Ky-	1f	Ky-
!LO:TX:t=P:problem:kreska pseudotaktowa	!	!	!	!	!	!	!
1C	-rie	1G	-ri-	.	.	1e	-rie
*	*	*Xlig	*	*	*	*	*
=24-	=24-	=24-	=24-	=24-	=24-	=24-	=24-
*	*	*lig	*	*	*	*	*
!	!	!	!	!LO:TX:t=P:problem:kreska pseudotaktowa	!	!LO:TX:t=P:problem:kreska pseudotaktowa	!
1D	e-	1F	.	1A	-rie	1d	.
!	!	!LO:TX:t=P:problem:kreska pseudotaktowa	!	!	!	!	!
2BB-X/	.	1G	.	2B-\	.	2d\	e-
1C/	.	.	.	1G/	e	1e\	.
*	*	*Xlig	*	*	*	*	*
=25-	=25-	=25-	=25-	=25-	=25-	=25-	=25-
*	*	*lig	*	*	*	*	*
.	.	1E	-e	.	.	.	.
1AA	.	.	.	1c	.	1c	.
.	.	1F	.	.	.	.	.
!	!	!	!	!LO:TX:t=P:problem:kreska pseudotaktowa	!	!LO:TX:t=P:problem:kreska pseudotaktowa	!
!LO:TX:t=P:problem:kreska pseudotaktowa	!	!	!	!LO:SIC:v:t=custos G	!	!	!
2BB-/	.	.	.	2B-\	.	2d\	.
!	!	!	!	!	!	!LO:SIC:v:t=custos e	!
*	*	*Xlig	*	*	*	*	*
!	!	!	!	!LO:LB:g=original	!	!LO:LB:g=original	!
=26-	=26-	=26-	=26-	=26-	=26-	=26-	=26-
*	*	*lig	*	*	*	*	*
2C/	.	1E	.	2G/	.	2e\	.
!LO:TX:t=P:problem:kreska pseudotaktowa	!	!	!	!	!	!LO:TX:t=P:problem:kreska pseudotaktowa	!
2AA/	.	.	.	1A	e-	2c/	.
!LO:LB:g=original	!	!LO:TX:t=P:problem:kreska pseudotaktowa	!	!	!	!	!
1BB-X	-lei-	1D	.	.	.	1d	-lei-
.	.	.	.	2G/	.	.	.
*	*	*Xlig	*	*	*	*	*
=27-	=27-	=27-	=27-	=27-	=27-	=27-	=27-
*	*	*lig	*	*lig	*	*	*
2AA/	.	1F	e-	1A	-lei-	2c,</	-son
!LO:TX:t=P:problem:kreska pseudotaktowa	!	!	!	!	!	!	!
2FF/	-son	.	.	.	.	1c	.
2GG,</	.	1D	.	1G	.	.	.
!	!	!	!	!	!	!LO:TX:t=P:problem:kreska pseudotaktowa	!
2G\	Ky-	.	.	.	.	2B/ny	Ky-
*	*	*Xlig	*	*Xlig	*	*	*
=28-	=28-	=28-	=28-	=28-	=28-	=28-	=28-
1A	-rie	1C	.	2C,</	-son	2c/	-ri-
.	.	.	.	1c	.	2F/	-e
!LO:TX:t=P:problem:kreska pseudotaktowa	!	!	!	!	!	!	!
*	*	*lig	*	*	*	*	*
1G	.	1D	.	.	.	2G/	.
!	!	!	!	!LO:TX:t=P:problem:kreska pseudotaktowa	!	!	!
.	.	.	.	2B-\	.	2g\	.
=29-	=29-	=29-	=29-	=29-	=29-	=29-	=29-
!	!	!LO:TX:t=P:problem:kreska pseudotaktowa	!	!	!	!	!
2GG/	.	1C	.	1c	Ky-	1e	.
!LO:TX:t=P:problem:kreska pseudotaktowa	!	!	!	!	!	!	!
2G\	.	.	.	.	.	.	.
*	*	*Xlig	*	*	*	*	*
2F\	.	1D	.	0A	-ri-	2d\	e-
!LO:TX:t=P:problem:kreska pseudotaktowa	!	!	!	!	!	!	!
[<2D/	.	.	.	.	.	1d\	.
=30-	=30-	=30-	=30-	=30-	=30-	=30-	=30-
*	*	*lig	*	*	*	*	*
2D/]	.	1F	.	.	.	.	.
!LO:TX:t=P:problem:kreska pseudotaktowa	!	!	!	!	!	!LO:TX:t=P:problem:kreska pseudotaktowa	!
2F\	.	.	.	.	.	2A/	.
2G\	lei-	1E	.	2G/	-e	2B/	.
!LO:TX:t=P:problem:kreska pseudotaktowa	!	!	!	!LO:TX:t=P:problem:kreska pseudotaktowa	!	!	!
2C/	.	.	.	2E/	e-	2c/	.
*	*	*Xlig	*	*	*	*	*
=31-	=31-	=31-	=31-	=31-	=31-	=31-	=31-
*	*	*lig	*	*	*	*	*
1D	-son	1F	.	2D/	.	1A	.
.	.	.	.	1d	.	.	.
2GG,</	.	1G	.	.	.	2B/	.
1C/	Ky-	.	.	1e\	.	1G/	.
*	*	*Xlig	*	*	*	*	*
=32-	=32-	=32-	=32-	=32-	=32-	=32-	=32-
*	*	*lig	*	*	*	*	*
.	.	1F	-lei-	.	.	.	.
!	!	!	!	!	!	!LO:TX:t=P:problem:kreska pseudotaktowa	!
1AA	-rie	.	.	1c	-lei-	2c/	.
.	.	0E	-son-	.	.	2A/	-lei-
!	!	!	!	!LO:TX:t=P:problem:kreska pseudotaktowa	!	!	!
2FF/	.	.	.	2A/	.	1d\	.
!LO:TX:t=P:problem:kreska pseudotaktowa	!	!	!	!	!	!	!
*	*	*Xlig	*	*	*	*	*
=33-	=33-	=33-	=33-	=33-	=33-	=33-	=33-
!	!	!	!	!LO:TX:t=P:problem:♭ above	!	!	!
2GG/	e-	.	.	2B-X\	.	.	.
!	!	!	!	!	!	!LO:TX:t=P:problem:# above	!
2AA/	-lei-	.	.	2A\	.	2c#X\	-son.
!	!	!	!	!LO:TX:t=P:problem:# above	!	!	!
!LO:TX:t=P:problem:końcowa kreska pseudotaktowa	!	!LO:TX:t=P:problem:końcowa kreska pseudotaktowa	!	!LO:TX:t=P:problem:końcowa kreska pseudotaktowa	!	!LO:TX:t=P:problem:końcowa kreska pseudotaktowa	!
0D;>	-son.	0D;>	.	0F#X;>	-son-	0d;>	.
=34-	=34-	=34-	=34-	=34-	=34-	=34-	=34-
.	.	.	.	.	.	.	.
=-	=-	=-	=-	=-	=-	=-	=-
*-	*-	*-	*-	*-	*-	*-	*-
!!!system-decoration: [(s1,s2,s3,s4)]
!!!RDF**kern: > = above
!!!RDF**kern: < = below
!!!EED: Antoni Szymański
!!!EST: 2021-07-26
!!!ENC:Anastazja Marusiak
!!!END:2021-07-02
